frontend/public/svg/interface/tree.svg

<svg width="150" height="134" viewBox="0 0 150 134" fill="none" xmlns="http://www.w3.org/2000/svg">
<g clip-path="url(#clip0)">
<path d="M141.47 95.8079C139.486 94.5458 137.368 93.5028 135.156 92.6975C134.141 92.2839 133.096 91.8568 132.046 91.3801L131.824 88.1847C131.635 85.4789 131.432 82.5844 131.241 79.686C131.112 77.7224 130.995 75.7562 130.878 73.7926C130.639 69.7784 130.391 65.6269 130.042 61.5524C129.775 58.433 129.376 58.0876 126.188 58.1553C121.398 58.2635 116.529 58.4091 111.82 58.5495C106.624 58.7054 101.25 58.8659 95.965 58.9767C92.0385 59.0586 88.162 59.0411 84.056 59.0179C82.3069 59.0089 80.5403 58.9999 78.7393 58.9986L79.3716 38.5314C89.6934 36.9389 95.8458 30.8329 97.6623 20.3783C99.0325 12.491 95.2518 5.93463 87.7959 3.26751C84.871 2.19239 81.8618 1.3604 78.7983 0.780119C73.5716 -0.16561 69.4281 0.615182 66.4818 3.09934C61.7431 7.09806 58.7728 11.3275 57.3975 16.0297C55.1897 23.5891 57.5167 30.1969 63.9496 34.6363C65.194 35.4397 66.5077 36.1309 67.8759 36.7017C68.4486 36.9594 69.0213 37.2172 69.5816 37.4961C70.1647 37.7815 70.7542 38.0457 71.0639 38.1823V59.8761C68.2134 60.0797 65.4041 60.2763 62.6358 60.4661C55.9969 60.9261 49.7266 61.3603 43.3636 61.8834C37.6627 62.3499 31.8777 62.9239 26.283 63.4792C24.1469 63.6914 22.0113 63.9016 19.876 64.1099C17.391 64.3508 16.0726 65.71 16.0642 68.0396C16.0551 70.5907 16.0979 72.6916 16.2003 74.652C16.438 79.2189 16.7017 83.7846 16.964 88.3264L17.2588 93.4545C9.67536 97.4287 4.83934 102.838 2.47802 109.986C0.785247 115.11 1.03335 120.229 3.17701 124.394C4.20317 126.348 5.61593 128.075 7.33036 129.472C9.04483 130.869 11.0256 131.907 13.1535 132.523C15.593 133.31 18.1401 133.716 20.7046 133.729C25.838 133.692 30.8184 131.986 34.8855 128.871C43.6312 122.415 44.1702 111.622 41.7609 103.674C39.7941 97.1839 35.1382 93.3984 27.924 92.4224C27.1945 92.3239 26.4631 92.2362 25.6844 92.1435L24.8157 92.0385L23.9541 70.5147C30.1978 69.0175 66.8686 66.6145 71.6197 67.3799L70.4025 91.6274L69.8142 91.8465C69.2461 92.0584 68.6902 92.2659 68.1299 92.4682C62.7977 94.3854 58.2913 98.0697 55.3678 102.901C53.4257 106.093 52.5068 109.798 52.7334 113.522C52.9602 117.247 54.3217 120.814 56.6369 123.749C62.1752 130.836 72.734 133.887 82.314 131.173C90.2914 128.912 96.1082 121.615 97.1337 112.583C98.2104 103.098 94.4096 96.7806 85.5143 93.2689C84.4486 92.8483 83.3318 92.5248 82.2518 92.2118C81.7491 92.0668 81.2458 91.9212 80.7476 91.7653L78.4802 91.0566L77.638 66.8394C87.7933 65.6559 119.731 65.4272 123.678 66.2415V71.0617C123.678 77.0382 123.678 82.9555 123.668 88.8721C123.656 89.3894 123.616 89.9054 123.548 90.4182C123.523 90.6385 123.496 90.8692 123.472 91.1088L122.854 91.315C122.307 91.4979 121.761 91.6796 121.214 91.8594C117.025 93.2065 113.282 95.661 110.388 98.9614C108.308 101.42 106.839 104.329 106.098 107.456C105.357 110.583 105.365 113.839 106.122 116.961C107.148 120.832 109.944 125.992 117.424 128.593C126.996 131.919 135.971 130.035 143.377 123.141C145.375 121.313 146.941 119.067 147.962 116.566C148.984 114.065 149.437 111.371 149.289 108.674C149.036 105.096 147.468 99.9593 141.47 95.8079ZM138.236 117.538C135.059 120.827 130.916 122.452 124.809 122.806C124.567 122.776 124.31 122.75 124.042 122.721C123.402 122.657 122.74 122.587 122.08 122.46C117.95 121.668 114.793 119.539 113.191 116.468C111.59 113.397 111.662 109.611 113.391 105.804C115.519 101.118 119.135 98.0156 123.849 96.8315C124.432 96.6911 125.03 96.6222 125.63 96.6273C127.67 96.7149 129.675 97.1891 131.536 98.0247C134.09 99.2365 136.396 100.906 138.339 102.951C142.472 107.062 142.43 113.198 138.236 117.538ZM75.1471 98.33C76.1837 98.7166 77.2616 99.0509 78.302 99.3756C79.9799 99.8581 81.6234 100.453 83.2203 101.156C87.2446 103.045 89.0391 105.969 89.0391 110.637C89.0391 118.625 84.3702 123.878 76.2258 125.053C68.6818 126.139 61.5112 121.969 59.5483 115.351C59.0346 113.825 58.8643 112.205 59.0496 110.607C59.2349 109.008 59.7712 107.47 60.6204 106.1C61.8135 104.284 63.184 102.589 64.7121 101.04C66.8543 98.7778 69.1457 97.6549 71.6482 97.6549C72.8461 97.6697 74.0309 97.8984 75.1471 98.33ZM70.9304 7.27973C71.781 6.8383 72.7191 6.5895 73.6779 6.55117C73.9299 6.54885 74.1812 6.57784 74.4254 6.63743C77.9412 7.52724 81.3993 8.62946 84.7797 9.93789C88.7074 11.4667 90.5978 14.5989 90.2473 18.9977C89.5891 27.2342 83.5812 32.4112 74.5634 32.5162C74.2609 32.4325 73.8819 32.3449 73.4505 32.245C71.9682 31.9439 70.5191 31.5012 69.1223 30.9231C62.7122 28.0446 60.5615 22.6441 63.2208 16.1058C64.8825 12.011 67.4769 9.0417 70.9304 7.27973ZM15.3471 101.692C17.0515 100.633 19.028 100.088 21.0376 100.122C22.985 100.136 24.9078 100.556 26.6821 101.355C30.6338 103.106 33.3178 106.259 33.8691 109.785C34.0135 110.706 34.0738 111.633 34.1217 112.379C34.1405 112.662 34.1574 112.914 34.1755 113.124C34.1107 119.103 31.3251 123.307 26.1081 125.28C21.5532 127.003 17.7388 127.076 14.1065 125.509C9.871 123.683 7.76621 120.385 8.02146 115.975C8.31039 110.968 10.4664 106.472 14.6118 102.233C14.8063 102.051 15.0202 101.892 15.2499 101.757L15.3471 101.692Z" fill="black"/>
</g>
<defs>
<clipPath id="clip0">
<rect width="149" height="134" fill="white" transform="translate(0.777344)"/>
</clipPath>
</defs>
</svg>

<svg xmlns="http://www.w3.org/2000/svg" width="150" height="134" fill="none" viewBox="0 0 150 134"><g clip-path="url(#a)"><path fill="#000" d="M141.47 95.808a32.4 32.4 0 0 0-6.314-3.11 86 86 0 0 1-3.11-1.318l-.222-3.195c-.189-2.706-.392-5.6-.583-8.499-.129-1.964-.246-3.93-.363-5.893-.239-4.015-.487-8.166-.836-12.24-.267-3.12-.666-3.465-3.854-3.398-4.79.108-9.659.254-14.368.395-5.196.155-10.57.316-15.855.427-3.927.082-7.803.064-11.909.04-1.75-.008-3.516-.017-5.317-.018l.633-20.468c10.321-1.592 16.474-7.698 18.29-18.153 1.37-7.887-2.41-14.443-9.866-17.11A56.6 56.6 0 0 0 78.798.78c-5.226-.946-9.37-.165-12.316 2.32-4.739 3.998-7.71 8.228-9.084 12.93-2.208 7.56.119 14.167 6.552 18.606a25 25 0 0 0 3.926 2.066 47 47 0 0 1 1.706.794c.583.285 1.172.55 1.482.686v21.694q-4.275.305-8.428.59c-6.64.46-12.91.894-19.272 1.417-5.701.467-11.486 1.04-17.081 1.596q-3.204.319-6.407.63c-2.485.242-3.803 1.601-3.812 3.93-.009 2.552.034 4.653.136 6.613.238 4.567.502 9.133.764 13.674l.295 5.129c-7.584 3.974-12.42 9.383-14.781 16.531-1.693 5.124-1.445 10.243.699 14.408a16.4 16.4 0 0 0 4.153 5.078 16.5 16.5 0 0 0 5.823 3.051 25 25 0 0 0 7.552 1.206 23.6 23.6 0 0 0 14.18-4.858c8.746-6.456 9.285-17.249 6.876-25.197-1.967-6.49-6.623-10.276-13.837-11.252-.73-.098-1.46-.186-2.24-.278l-.868-.106-.862-21.523c6.244-1.498 42.915-3.9 47.666-3.135l-1.218 24.247-.588.22c-.568.211-1.124.419-1.684.621a24.67 24.67 0 0 0-12.762 10.433 18.29 18.29 0 0 0 1.269 20.848c5.538 7.087 16.097 10.138 25.677 7.424 7.977-2.261 13.794-9.558 14.82-18.59 1.076-9.485-2.724-15.802-11.62-19.314-1.065-.42-2.182-.744-3.262-1.057a70 70 0 0 1-1.504-.447l-2.268-.708-.842-24.218c10.155-1.183 42.093-1.412 46.04-.597v4.82c0 5.976 0 11.894-.01 17.81a14 14 0 0 1-.12 1.546q-.039.33-.076.69l-.618.207a338 338 0 0 1-1.64.544 24.3 24.3 0 0 0-10.826 7.102 20.45 20.45 0 0 0-4.29 8.495 20.4 20.4 0 0 0 .024 9.505c1.026 3.871 3.822 9.031 11.302 11.632 9.572 3.326 18.547 1.442 25.953-5.452a18.3 18.3 0 0 0 4.585-6.575 18.2 18.2 0 0 0 1.327-7.892c-.253-3.578-1.821-8.715-7.819-12.866m-3.234 21.73c-3.177 3.289-7.32 4.914-13.427 5.268q-.364-.043-.767-.085a22 22 0 0 1-1.962-.261c-4.13-.792-7.287-2.921-8.889-5.992s-1.529-6.857.2-10.664c2.128-4.686 5.744-7.788 10.458-8.972a7.3 7.3 0 0 1 1.781-.205c2.04.088 4.045.562 5.906 1.398a23 23 0 0 1 6.803 4.926c4.133 4.111 4.091 10.247-.103 14.587M75.147 98.33c1.037.387 2.115.72 3.155 1.046a39 39 0 0 1 4.918 1.78c4.025 1.889 5.82 4.813 5.82 9.481 0 7.988-4.67 13.241-12.814 14.416-7.544 1.086-14.715-3.084-16.678-9.702a10.93 10.93 0 0 1 1.072-9.251 33 33 0 0 1 4.092-5.06c2.142-2.262 4.434-3.385 6.936-3.385a10 10 0 0 1 3.5.675M70.93 7.28a6.5 6.5 0 0 1 2.748-.729q.38-.003.747.086a90 90 0 0 1 10.355 3.3c3.927 1.53 5.818 4.662 5.467 9.06-.658 8.237-6.666 13.414-15.684 13.52-.302-.085-.681-.172-1.112-.272a23.6 23.6 0 0 1-4.329-1.322c-6.41-2.878-8.56-8.279-5.901-14.817 1.661-4.095 4.256-7.064 7.71-8.826m-55.583 94.412a10.45 10.45 0 0 1 5.69-1.57c1.948.014 3.87.434 5.645 1.233 3.952 1.751 6.636 4.904 7.187 8.43.145.921.205 1.848.253 2.594.019.283.035.535.053.745-.064 5.979-2.85 10.183-8.067 12.156-4.555 1.723-8.37 1.796-12.001.229-4.236-1.826-6.34-5.124-6.086-9.534.29-5.007 2.445-9.503 6.59-13.742q.294-.273.639-.476z"/></g><defs><clipPath id="a"><path fill="#fff" d="M.777 0h149v134h-149z"/></clipPath></defs></svg>
